custom_files/u170.svg

<svg width="19" height="19" viewBox="-237 181 19 19" xmlns="http://www.w3.org/2000/svg"><path d="M-227.5 181c5.32 0 9.5 4.18 9.5 9.5s-4.18 9.5-9.5 9.5-9.5-4.18-9.5-9.5 4.18-9.5 9.5-9.5z" fill="#aaa5a5"/><path d="M-227.5 181.5c5.04 0 9 3.96 9 9s-3.96 9-9 9-9-3.96-9-9 3.96-9 9-9z" stroke="#797979" fill="none"/></svg>

﻿<?xml version="1.0" encoding="utf-8"?>
<svg version="1.1" xmlns:xlink="http://www.w3.org/1999/xlink" width="19px" height="19px" viewBox="-237 181  19 19" xmlns="http://www.w3.org/2000/svg">
  <path d="M -227.5 181  C -222.18 181  -218 185.18  -218 190.5  C -218 195.82  -222.18 200  -227.5 200  C -232.82 200  -237 195.82  -237 190.5  C -237 185.18  -232.82 181  -227.5 181  Z " fill-rule="nonzero" fill="#aaa5a5" stroke="none" />
  <path d="M -227.5 181.5  C -222.46 181.5  -218.5 185.46  -218.5 190.5  C -218.5 195.54  -222.46 199.5  -227.5 199.5  C -232.54 199.5  -236.5 195.54  -236.5 190.5  C -236.5 185.46  -232.54 181.5  -227.5 181.5  Z " stroke-width="1" stroke="#797979" fill="none" />
</svg>
